X: 56
T: No_155_Inside_the_Cave.krn
N: Derived from No_155_Inside_the_Cave.krn
%%abc-version 2.0
%%abcx-abcm2ps-target-version 5.9.1 (29 Sep 2008)
%%abc-creator hum2abc beta
%%abcx-conversion-date 2019/03/15 08:29:13
%%humdrum-veritas 664332723
%%humdrum-veritas-data 2219835252
%%linebreak <none>
%%barnumbers 0
L: 1/8
M: 2/4
K: C clef=treble
[K:clef=treble][M:2/4]GG G3/G/ | 
GGE2 | 
GG G3/G/ | 
AG E3/E/ | 
ECC2 | 
EEC2 ||  
[M:3/4]C4C2 | 
[M:2/4]CC C3/D/ [I:setbarnb 9]| 
ECA,2 | 
CC C3/D/ | 
EC A,3/G,/[K:clef=bass] | 
G,3G, | 
A,G,E,2 | 
G,G, G,3/G,/ | 
A,G, E,3/D,/ | 
C,2!accent!E,D, | 
C,4 :|]  



